X:1
T:Title
%%score { 1 | 2 }
L:1/8
M:4/4
K:Db
V:1 treble nm="Grand Piano"
V:2 bass 
V:1
 z4 z2[Q:1/4=114] A2 | =G2 A2 B2 A2 | [Fd]4 [FA]2 [DF]2 | [CE]2 [DF]2 [CA]2 [CG]2 | F6 A2 | %5
 =G2 A2 B2 A2 | [Fd]4 [DF]2 [DF]2 | [DE]2 [Fd]2 [Ec]2 [DB]2 | [CA]6 A2 | e2 A2 B2 c2 | %10
 [GB]4 [FA]2 [FA]2 | e2 A2 c2 B2 | [FA]6 [FA]2 | [Af]2 [Ge]2 [Fd]2 [FA]2 | %14
[M:9/8] [GB]2 [Ac]- [Ac] [Bd]2- [Bd] B2 |[M:4/4] A2 d2 c2 e2 |[M:3/4] [Fd]6 |[M:1/4] [FA]2 | %18
[M:4/4] A2 G2 E2 B2 | [FA]4 [DF]2 [FA]2 | A2 G2 E2 B2 | [FA]4 [DF]2 [FA]2 | %22
 [Af]2 [Ge]2 [Fd]2 [FA]2 |[M:9/8] [GB]2 [Ac]- [Ac] [Bd]2- [Bd] B2 |[M:4/4] A2 d2 c2 e2 | %25
[M:3/4] [Fd]6 |] %26
V:2
 z4 z2 [D,F,D]2 | [D,_F,D]2 [D,=F,D]2 [D,G,D]2 [D,F,D]2 | [D,A,]4 [D,D]2 [D,A,]2 | %3
 [A,,A,]2 [A,,A,]2 [A,,E,]2 [A,,A,]2 | [D,A,D]6 [D,F,D]2 | [D,_F,D]2 [D,=F,D]2 [D,G,D]2 [D,F,D]2 | %6
 [B,,B,]4 [B,,B,]2 [B,,B,]2 | [E,=G,]2 [E,B,]2 [E,A,]2 [E,G,]2 | [A,,A,]6[K:treble] [A,CG]2 | %9
 [A,CG]2 [A,CG]2 [A,DG]2 [A,EG]2 | [D,D]4 [D,D]2 [D,D]2 | [A,CG]2 [A,CG]2 [A,EG]2 [A,DG]2 | %12
 [D,D]6 [D,D]2 | [D,D]2 [E,C]2 [F,D]2 [D,D]2 | %14
[M:9/8] [G,D]3- [G,D] [G,D]2- [G,D][K:treble] [G,DG]2 |[M:4/4] [A,DF]2 [A,DF]2 [A,EG]2 [A,CG]2 | %16
[M:3/4][K:bass] [D,D]6 |[M:1/4] [D,D]2 |[M:4/4] [A,CE]2 [A,CE]2 [A,C]2 [A,CG]2 | %19
 [D,D]4 [D,A,]2 [D,D]2 | [A,CE]2 [A,CE]2 [A,C]2 [A,CG]2 | [D,D]4 [D,A,]2 [D,D]2 | %22
 [D,D]2 [E,C]2 [F,D]2 [D,D]2 |[M:9/8] [G,D]3- [G,D] [G,D]2- [G,D][K:treble] [G,DG]2 | %24
[M:4/4] [A,DF]2 [A,DF]2 [A,EG]2 [A,CG]2 |[M:3/4][K:bass] [D,D]6 |] %26

